Numix/24/status/pamac-tray-update.svg

<?xml version="1.0" encoding="UTF-8" standalone="no"?>
<svg
   xmlns:dc="http://purl.org/dc/elements/1.1/"
   xmlns:cc="http://creativecommons.org/ns#"
   xmlns:rdf="http://www.w3.org/1999/02/22-rdf-syntax-ns#"
   xmlns:svg="http://www.w3.org/2000/svg"
   xmlns="http://www.w3.org/2000/svg"
   xmlns:sodipodi="http://sodipodi.sourceforge.net/DTD/sodipodi-0.dtd"
   xmlns:inkscape="http://www.inkscape.org/namespaces/inkscape"
   width="24"
   height="24"
   viewBox="0 0 24 24"
   id="svg2"
   version="1.1"
   inkscape:version="0.91 r13725"
   sodipodi:docname="pamac-tray-update2.svg">
  <metadata
     id="metadata10">
    <rdf:RDF>
      <cc:Work
         rdf:about="">
        <dc:format>image/svg+xml</dc:format>
        <dc:type
           rdf:resource="http://purl.org/dc/dcmitype/StillImage" />
        <dc:title></dc:title>
      </cc:Work>
    </rdf:RDF>
  </metadata>
  <defs
     id="defs8" />
  <sodipodi:namedview
     pagecolor="#ffffff"
     bordercolor="#666666"
     borderopacity="1"
     objecttolerance="10"
     gridtolerance="10"
     guidetolerance="10"
     inkscape:pageopacity="0"
     inkscape:pageshadow="2"
     inkscape:window-width="1366"
     inkscape:window-height="704"
     id="namedview6"
     showgrid="false"
     inkscape:zoom="1"
     inkscape:cx="8.8543479"
     inkscape:cy="9.0003801"
     inkscape:window-x="0"
     inkscape:window-y="27"
     inkscape:window-maximized="1"
     inkscape:current-layer="svg2"
     inkscape:object-nodes="true">
    <inkscape:grid
       type="xygrid"
       id="grid4138" />
  </sodipodi:namedview>
  <path
     style="display:inline;fill:#ef555c;fill-opacity:1;fill-rule:evenodd;stroke:none;enable-background:new"
     d="M 12,1 8.8632812,5.7265625 4.1367188,4.1367188 5.7265625,8.8632812 1,12 5.7265625,15.136719 4.1367188,19.863281 8.8632812,18.273438 12,23 15.136719,18.273438 19.863281,19.863281 18.273438,15.136719 23,12 18.273438,8.8632812 19.863281,4.1367188 15.136719,5.7265625 Z m -1,6 2,0 0,6 -2,0 z m 1,7.699219 C 12.71858,14.698787 13.301213,15.28142 13.300781,16 13.301213,16.71858 12.71858,17.301213 12,17.300781 11.28142,17.301213 10.698787,16.71858 10.699219,16 10.698787,15.28142 11.28142,14.698787 12,14.699219 Z"
     id="path16909"
     inkscape:connector-curvature="0"
     sodipodi:nodetypes="ccccccccccccccccccccccccccc" />
</svg>

<svg xmlns="http://www.w3.org/2000/svg" viewBox="0 0 24 24">
 <path d="m 12 1 -3.137 4.727 -4.727 -1.59 1.59 4.727 -4.727 3.137 4.727 3.137 -1.59 4.727 4.727 -1.59 3.137 4.727 3.137 -4.727 4.727 1.59 -1.59 -4.727 4.727 -3.137 -4.727 -3.137 1.59 -4.727 -4.727 1.59 m -4.137 1.273 2 0 0 6 -2 0 z m 1 7.699 c 0.719 0 1.301 0.582 1.301 1.301 0 0.719 -0.582 1.301 -1.301 1.301 -0.719 0 -1.301 -0.582 -1.301 -1.301 0 -0.719 0.582 -1.301 1.301 -1.301" style="fill:#ef555c;fill-opacity:1;stroke:none;display:inline;fill-rule:evenodd"/>
</svg>
